dist/img/icons/specialty/1.svg

<svg width="64" height="64" viewBox="0 0 64 64" fill="none" xmlns="http://www.w3.org/2000/svg">
<path d="M35.9941 11.0847V13.1186H57.4986C58.7662 13.117 59.8873 12.2943 60.2674 11.0847H35.9941Z" fill="#F1B08D"/>
<path d="M54.1772 15.1526H35.9941V17.1865H51.4386C52.6995 17.1845 53.8106 16.3594 54.1772 15.1526Z" fill="#F1B08D"/>
<path d="M49.0763 19.2203H35.9941V21.2542H46.2927C47.5639 21.2527 48.6889 20.4311 49.0763 19.2203Z" fill="#F1B08D"/>
<path d="M27.8587 13.1186V11.0847H3.58496C3.96592 12.2943 5.08615 13.117 6.35456 13.1186H27.8587Z" fill="#F1B08D"/>
<path d="M27.8579 17.1865V15.1526H9.6748C10.0411 16.3594 11.153 17.1845 12.4138 17.1865H27.8579Z" fill="#F1B08D"/>
<path d="M17.5599 21.2542H27.8585V19.2203H14.7764C15.1641 20.4311 16.2887 21.2527 17.5599 21.2542Z" fill="#F1B08D"/>
<path d="M33.9604 3.96615C33.9604 5.08956 33.0499 6.00005 31.9265 6.00005C30.8035 6.00005 29.8926 5.08956 29.8926 3.96615C29.8926 2.84274 30.8035 1.93225 31.9265 1.93225C33.0499 1.93225 33.9604 2.84274 33.9604 3.96615Z" fill="#F1B08D"/>
<path d="M50.2312 31.4237V29.3898C50.2265 27.7071 48.8635 26.3437 47.1804 26.3389H32.9431V7.90198C32.2765 8.07796 31.5758 8.07796 30.9092 7.90198V26.3389H16.6719C14.9892 26.3437 13.6263 27.7071 13.6211 29.3898V31.4237C13.6263 33.1064 14.9892 34.4698 16.6719 34.4745C17.2336 34.4745 17.6889 34.0193 17.6889 33.4576C17.6889 32.8959 17.2336 32.4406 16.6719 32.4406C16.1106 32.4406 15.655 31.9854 15.655 31.4237V29.3898C15.655 28.8281 16.1106 28.3728 16.6719 28.3728H30.9092V34.9425L20.7397 36.5084C19.0447 36.5593 17.6944 37.9445 17.6889 39.6407V41.5117C17.6897 43.2414 19.0912 44.6436 20.8212 44.644H22.7736C23.3353 44.644 23.7906 44.1888 23.7906 43.6271C23.7906 43.0654 23.3353 42.6101 22.7736 42.6101H20.8212C20.2166 42.6058 19.7276 42.1168 19.7228 41.5117V39.6407C19.7276 39.0357 20.2166 38.5467 20.8212 38.5423C20.872 38.5439 20.9233 38.5407 20.9737 38.5324L30.9092 36.9967V45.2951L24.6856 46.6779C23.0513 46.7494 21.7618 48.0929 21.7567 49.7288V51.7627C21.7618 53.4454 23.1248 54.8088 24.8075 54.8135H26.8414C27.4031 54.8135 27.8584 54.3583 27.8584 53.7966C27.8584 53.2349 27.4031 52.7796 26.8414 52.7796H24.8075C24.2462 52.7796 23.7906 52.3244 23.7906 51.7627V49.7288C23.7906 49.1671 24.2462 48.7118 24.8075 48.7118C24.8826 48.7102 24.9573 48.7035 25.0312 48.6916L30.9092 47.3795V60.9152C30.9092 61.4769 31.3649 61.9322 31.9262 61.9322C32.4879 61.9322 32.9431 61.4769 32.9431 60.9152V46.9322L43.3363 44.6238C43.8868 44.5002 44.2328 43.9536 44.1093 43.403C43.9858 42.8529 43.4395 42.5068 42.889 42.6304L32.9431 44.8474V36.6812L47.3329 34.4646C47.3429 34.4646 47.3429 34.4543 47.3532 34.4543C48.9656 34.3697 50.2304 33.0385 50.2312 31.4237ZM48.1973 31.4237C48.1973 31.9854 47.7421 32.4406 47.1804 32.4406C47.1522 32.4426 47.1248 32.4494 47.099 32.4609C47.0787 32.4609 47.0481 32.4506 47.0283 32.4506L32.9431 34.6271V28.3728H47.1804C47.7421 28.3728 48.1973 28.8281 48.1973 29.3898V31.4237Z" fill="#F1B08D"/>
<path d="M39.045 46.678H37.0111C36.4498 46.678 35.9941 47.1332 35.9941 47.6949C35.9941 48.2566 36.4498 48.7119 37.0111 48.7119H39.045C39.6067 48.7119 40.0619 49.1671 40.0619 49.7288V51.7627C40.0619 52.3244 39.6067 52.7797 39.045 52.7797H37.0111C36.4498 52.7797 35.9941 53.2349 35.9941 53.7966C35.9941 54.3583 36.4498 54.8136 37.0111 54.8136H39.045C40.7301 54.8136 42.0958 53.4474 42.0958 51.7627V49.7288C42.0958 48.0441 40.7301 46.678 39.045 46.678Z" fill="#F1B08D"/>
<path d="M21.7563 8.11656C21.8961 8.11696 22.0344 8.08875 22.1631 8.03393C23.4243 7.48335 24.7309 7.04122 26.0672 6.7119C26.6126 6.57763 26.9463 6.02625 26.812 5.48044C26.6778 4.93542 26.1268 4.60173 25.581 4.736C24.1326 5.09233 22.7172 5.57101 21.3499 6.16688C20.9074 6.35915 20.6611 6.83505 20.76 7.30697C20.8581 7.7789 21.2744 8.11696 21.7563 8.11656Z" fill="#F1B08D"/>
<path d="M20.2106 51.7627H20.2011C17.3488 50.1813 14.8331 48.0564 12.7968 45.5085C12.4425 45.0815 11.8148 45.0096 11.3731 45.3456C11.1574 45.5093 11.0175 45.754 10.987 46.0229C10.956 46.2919 11.037 46.562 11.2102 46.7694C12.0833 47.8773 13.0455 48.9109 14.0882 49.8607C15.649 51.2904 17.3771 52.527 19.2342 53.5424C19.3812 53.6306 19.5504 53.6766 19.7224 53.6743C20.1888 53.677 20.5971 53.3612 20.7123 52.9092C20.8283 52.4571 20.621 51.9844 20.2106 51.7627Z" fill="#F1B08D"/>
<path d="M8.29246 37.6983C8.42673 37.4679 8.46288 37.1934 8.39455 36.9356C7.87257 35.0487 7.579 33.1061 7.51981 31.1493C7.50949 30.8951 7.50949 30.6408 7.50949 30.4068C7.51068 29.3525 7.57861 28.2998 7.71327 27.2543C7.74744 26.9858 7.67355 26.7144 7.5075 26.5011C7.34105 26.287 7.09675 26.1484 6.82821 26.115C6.27048 26.049 5.76319 26.4431 5.68931 27.0001C5.54669 28.1302 5.47519 29.2675 5.47559 30.4068C5.47559 30.6408 5.47559 30.8851 5.48592 31.1493V31.2204C5.55067 33.3353 5.86807 35.4352 6.43136 37.4746C6.55451 37.9128 6.95294 38.2159 7.40779 38.2171C7.49995 38.2167 7.59251 38.2068 7.68229 38.1865C7.94288 38.1126 8.16296 37.9362 8.29246 37.6983Z" fill="#F1B08D"/>
<path d="M56.5967 21.1017C56.3909 20.5833 55.8074 20.3255 55.285 20.5218C55.0296 20.6131 54.8262 20.8094 54.7257 21.0612C54.6124 21.3051 54.6045 21.5844 54.7046 21.8339C55.5889 24.1391 56.124 26.5639 56.2928 29.028C56.3305 29.5687 56.3325 30.1129 56.3325 30.6551C56.3325 30.8879 56.3325 31.1219 56.3222 31.3936C56.3135 31.6641 56.412 31.9275 56.5967 32.1253C56.7806 32.324 57.0384 32.4384 57.309 32.4408H57.3284C57.8786 32.4471 58.3343 32.0149 58.3561 31.4643C58.3664 31.1596 58.3664 30.8748 58.3664 30.6206C58.372 27.3655 57.7721 24.1375 56.5967 21.1017Z" fill="#F1B08D"/>
<path d="M55.4483 40.1289C54.9366 39.9025 54.338 40.123 54.0956 40.6271C53.2769 42.4004 52.2492 44.07 51.0349 45.5998C50.2209 46.6164 49.3303 47.5682 48.3701 48.4477C48.0595 48.7297 47.9542 49.1735 48.1052 49.5655C48.2561 49.9572 48.6319 50.2158 49.0514 50.217C49.3056 50.2127 49.5508 50.1189 49.7434 49.9529C50.7691 49.0134 51.7177 47.9928 52.5805 46.902C52.5984 46.8933 52.6127 46.879 52.6215 46.8611C53.9403 45.2034 55.0566 43.3935 55.9464 41.4708C56.1772 40.9624 55.9548 40.3637 55.4483 40.1289Z" fill="#F1B08D"/>
<path d="M37.7843 6.71181C39.121 7.04112 40.4267 7.48326 41.6888 8.03384C42.2032 8.25828 42.8023 8.02272 43.0267 7.50789C43.1355 7.2608 43.1411 6.98035 43.0426 6.72849C42.9445 6.47664 42.7498 6.27444 42.5019 6.16679C41.1346 5.56933 39.7189 5.08986 38.2705 4.73194C37.7235 4.59767 37.1713 4.93175 37.0375 5.47876C36.9032 6.02577 37.2377 6.57754 37.7843 6.71181Z" fill="#F1B08D"/>
<path d="M9.55343 21.2543C9.55343 21.816 9.09818 22.2712 8.53648 22.2712C7.97517 22.2712 7.51953 21.816 7.51953 21.2543C7.51953 20.6926 7.97517 20.2373 8.53648 20.2373C9.09818 20.2373 9.55343 20.6926 9.55343 21.2543Z" fill="#F1B08D"/>
<path d="M9.55343 40.5763C9.55343 41.138 9.09818 41.5932 8.53648 41.5932C7.97517 41.5932 7.51953 41.138 7.51953 40.5763C7.51953 40.0146 7.97517 39.5593 8.53648 39.5593C9.09818 39.5593 9.55343 40.0146 9.55343 40.5763Z" fill="#F1B08D"/>
<path d="M57.3503 38.5423C57.3503 39.104 56.8951 39.5593 56.3334 39.5593C55.7721 39.5593 55.3164 39.104 55.3164 38.5423C55.3164 37.9806 55.7721 37.5254 56.3334 37.5254C56.8951 37.5254 57.3503 37.9806 57.3503 38.5423Z" fill="#F1B08D"/>
</svg>

<svg width="64" height="64" fill="none" xmlns="http://www.w3.org/2000/svg"><path d="M35.994 11.085v2.034H57.5a2.906 2.906 0 002.768-2.034H35.994zm18.183 4.068H35.994v2.033H51.44a2.867 2.867 0 002.738-2.033zm-5.101 4.067H35.994v2.034h10.299a2.926 2.926 0 002.783-2.034zm-21.217-6.101v-2.034H3.585a2.907 2.907 0 002.77 2.034h21.504zm-.001 4.067v-2.033H9.675a2.867 2.867 0 002.739 2.033h15.444zM17.56 21.254h10.299V19.22H14.775a2.926 2.926 0 002.784 2.034zm16.4-17.288a2.034 2.034 0 11-4.067 0 2.034 2.034 0 014.067 0z" fill="#F1B08D"/><path d="M50.231 31.424V29.39a3.06 3.06 0 00-3.05-3.051H32.942V7.902a3.984 3.984 0 01-2.034 0v18.437H16.672a3.06 3.06 0 00-3.05 3.05v2.035a3.06 3.06 0 003.05 3.05 1.017 1.017 0 100-2.033 1.017 1.017 0 01-1.017-1.017V29.39c0-.562.456-1.017 1.017-1.017h14.237v6.57l-10.17 1.565a3.145 3.145 0 00-3.05 3.133v1.87a3.133 3.133 0 003.132 3.133h1.953a1.017 1.017 0 100-2.034H20.82a1.107 1.107 0 01-1.098-1.098V39.64a1.107 1.107 0 011.098-1.099.788.788 0 00.153-.01l9.935-1.535v8.298l-6.223 1.383a3.063 3.063 0 00-2.93 3.05v2.035a3.06 3.06 0 003.052 3.05h2.033a1.017 1.017 0 100-2.033h-2.034a1.017 1.017 0 01-1.016-1.017v-2.034c0-.562.455-1.017 1.017-1.017a1.83 1.83 0 00.223-.02l5.878-1.313v13.536a1.017 1.017 0 002.034 0V46.932l10.393-2.308a1.022 1.022 0 00-.447-1.994l-9.946 2.217v-8.166l14.39-2.216c.01 0 .01-.01.02-.01a3.037 3.037 0 002.878-3.031zm-2.034 0c0 .561-.455 1.017-1.017 1.017a.241.241 0 00-.081.02c-.02 0-.05-.01-.07-.01l-14.086 2.176v-6.254H47.18c.562 0 1.017.455 1.017 1.017v2.034z" fill="#F1B08D"/><path d="M39.045 46.678h-2.034a1.017 1.017 0 000 2.034h2.034c.562 0 1.017.455 1.017 1.017v2.034c0 .561-.455 1.017-1.017 1.017h-2.034a1.017 1.017 0 000 2.034h2.034a3.05 3.05 0 003.05-3.051v-2.034a3.05 3.05 0 00-3.05-3.051zM21.756 8.117c.14 0 .278-.028.407-.083a24.281 24.281 0 013.904-1.322 1.018 1.018 0 00-.486-1.976 26.342 26.342 0 00-4.231 1.43 1.016 1.016 0 00.406 1.95zM20.21 51.763h-.009a24.992 24.992 0 01-7.404-6.255 1.035 1.035 0 00-1.424-.162.991.991 0 00-.163 1.423 25.69 25.69 0 002.878 3.092 26.296 26.296 0 005.146 3.681.926.926 0 00.488.132 1.016 1.016 0 00.489-1.911zM8.292 37.698c.135-.23.17-.505.103-.762a24.478 24.478 0 01-.875-5.787c-.01-.254-.01-.508-.01-.742 0-1.055.069-2.107.203-3.153a1.017 1.017 0 00-.885-1.139A1.027 1.027 0 005.69 27a27.126 27.126 0 00-.203 4.15v.07c.065 2.115.382 4.215.945 6.255.124.438.522.74.977.742.092 0 .185-.01.274-.03.26-.074.481-.25.61-.489zm48.305-16.596a1.024 1.024 0 00-1.312-.58.944.944 0 00-.56.54.973.973 0 00-.02.772 24.823 24.823 0 011.588 7.194c.038.54.04 1.085.04 1.627 0 .233 0 .467-.01.739-.01.27.089.534.274.731a.983.983 0 00.712.316h.02a1.017 1.017 0 001.027-.977c.01-.304.01-.59.01-.843a26.239 26.239 0 00-1.77-9.52zm-1.149 19.027a1.036 1.036 0 00-1.352.498 24.553 24.553 0 01-3.061 4.973 25.336 25.336 0 01-2.665 2.848 1.016 1.016 0 00.681 1.769c.255-.004.5-.098.692-.264a26.065 26.065 0 002.837-3.051.089.089 0 00.041-.04 26.61 26.61 0 003.325-5.391 1.016 1.016 0 00-.498-1.342zM37.784 6.712a24.32 24.32 0 013.905 1.322 1.016 1.016 0 001.354-1.306 1.013 1.013 0 00-.541-.561 26.36 26.36 0 00-4.232-1.435 1.019 1.019 0 10-.486 1.98zM9.553 21.254a1.017 1.017 0 11-2.033 0 1.017 1.017 0 012.033 0zm0 19.322a1.017 1.017 0 11-2.033 0 1.017 1.017 0 012.033 0zm47.797-2.034a1.017 1.017 0 11-2.033 0 1.017 1.017 0 012.033 0z" fill="#F1B08D"/></svg>
